9-regular-expressions/10-regexp-greedy-and-lazy/witch_lazy5.svg

<?xml version="1.0" encoding="UTF-8"?>
<svg width="463px" height="130px" viewBox="0 0 463 130" version="1.1" xmlns="http://www.w3.org/2000/svg" xmlns:xlink="http://www.w3.org/1999/xlink">
    <!-- Generator: sketchtool 61.2 (101010) - https://sketch.com -->
    <title>witch_lazy5.svg</title>
    <desc>Created with sketchtool.</desc>
    <g id="regexp" stroke="none" stroke-width="1" fill="none" fill-rule="evenodd">
        <g id="witch_lazy5.svg">
            <text id="a-&quot;witch&quot;-and-her-&quot;b" font-family="PTMono-Regular, PT Mono" font-size="22" font-weight="normal" fill="#8A704D">
                <tspan x="20" y="105">a "witch" and her "broom" is one</tspan>
            </text>
            <rect id="Rectangle-1" stroke="#E8C48E" x="45.5" y="43.5" width="94" height="76"></rect>
            <path d="M52.0039062,53.4414062 L51.6757812,58.9375 L49.7539062,58.9375 L49.4140625,53.4414062 L52.0039062,53.4414062 Z M56.5625,53.4414062 L56.234375,58.9375 L54.3125,58.9375 L53.9726562,53.4414062 L56.5625,53.4414062 Z M66.0898438,66.3085938 C66.3554701,66.3085938 66.6074207,66.3593745 66.8457031,66.4609375 C67.0839856,66.5625005 67.2910147,66.7031241 67.4667969,66.8828125 C67.642579,67.0625009 67.7812495,67.2714832 67.8828125,67.5097656 C67.9843755,67.7480481 68.0351562,68.0039049 68.0351562,68.2773438 C68.0351562,68.5429701 67.9843755,68.7929676 67.8828125,69.0273438 C67.7812495,69.2617199 67.642579,69.466796 67.4667969,69.6425781 C67.2910147,69.8183603 67.0839856,69.9570307 66.8457031,70.0585938 C66.6074207,70.1601568 66.3554701,70.2109375 66.0898438,70.2109375 C65.8164049,70.2109375 65.5625012,70.1601568 65.328125,70.0585938 C65.0937488,69.9570307 64.8886728,69.8183603 64.7128906,69.6425781 C64.5371085,69.466796 64.398438,69.2617199 64.296875,69.0273438 C64.195312,68.7929676 64.1445312,68.5429701 64.1445312,68.2773438 C64.1445312,68.0039049 64.195312,67.7480481 64.296875,67.5097656 C64.398438,67.2714832 64.5371085,67.0625009 64.7128906,66.8828125 C64.8886728,66.7031241 65.0937488,66.5625005 65.328125,66.4609375 C65.5625012,66.3593745 65.8164049,66.3085938 66.0898438,66.3085938 L66.0898438,66.3085938 Z M79.2851562,66.3085938 C79.5507826,66.3085938 79.8027332,66.3593745 80.0410156,66.4609375 C80.2792981,66.5625005 80.4863272,66.7031241 80.6621094,66.8828125 C80.8378915,67.0625009 80.976562,67.2714832 81.078125,67.5097656 C81.179688,67.7480481 81.2304688,68.0039049 81.2304688,68.2773438 C81.2304688,68.5429701 81.179688,68.7929676 81.078125,69.0273438 C80.976562,69.2617199 80.8378915,69.466796 80.6621094,69.6425781 C80.4863272,69.8183603 80.2792981,69.9570307 80.0410156,70.0585938 C79.8027332,70.1601568 79.5507826,70.2109375 79.2851562,70.2109375 C79.0117174,70.2109375 78.7578137,70.1601568 78.5234375,70.0585938 C78.2890613,69.9570307 78.0839853,69.8183603 77.9082031,69.6425781 C77.732421,69.466796 77.5937505,69.2617199 77.4921875,69.0273438 C77.3906245,68.7929676 77.3398438,68.5429701 77.3398438,68.2773438 C77.3398438,68.0039049 77.3906245,67.7480481 77.4921875,67.5097656 C77.5937505,67.2714832 77.732421,67.0625009 77.9082031,66.8828125 C78.0839853,66.7031241 78.2890613,66.5625005 78.5234375,66.4609375 C78.7578137,66.3593745 79.0117174,66.3085938 79.2851562,66.3085938 L79.2851562,66.3085938 Z M92.4804688,66.3085938 C92.7460951,66.3085938 92.9980457,66.3593745 93.2363281,66.4609375 C93.4746106,66.5625005 93.6816397,66.7031241 93.8574219,66.8828125 C94.033204,67.0625009 94.1718745,67.2714832 94.2734375,67.5097656 C94.3750005,67.7480481 94.4257812,68.0039049 94.4257812,68.2773438 C94.4257812,68.5429701 94.3750005,68.7929676 94.2734375,69.0273438 C94.1718745,69.2617199 94.033204,69.466796 93.8574219,69.6425781 C93.6816397,69.8183603 93.4746106,69.9570307 93.2363281,70.0585938 C92.9980457,70.1601568 92.7460951,70.2109375 92.4804688,70.2109375 C92.2070299,70.2109375 91.9531262,70.1601568 91.71875,70.0585938 C91.4843738,69.9570307 91.2792978,69.8183603 91.1035156,69.6425781 C90.9277335,69.466796 90.789063,69.2617199 90.6875,69.0273438 C90.585937,68.7929676 90.5351562,68.5429701 90.5351562,68.2773438 C90.5351562,68.0039049 90.585937,67.7480481 90.6875,67.5097656 C90.789063,67.2714832 90.9277335,67.0625009 91.1035156,66.8828125 C91.2792978,66.7031241 91.4843738,66.5625005 91.71875,66.4609375 C91.9531262,66.3593745 92.2070299,66.3085938 92.4804688,66.3085938 L92.4804688,66.3085938 Z M105.675781,66.3085938 C105.941408,66.3085938 106.193358,66.3593745 106.431641,66.4609375 C106.669923,66.5625005 106.876952,66.7031241 107.052734,66.8828125 C107.228517,67.0625009 107.367187,67.2714832 107.46875,67.5097656 C107.570313,67.7480481 107.621094,68.0039049 107.621094,68.2773438 C107.621094,68.5429701 107.570313,68.7929676 107.46875,69.0273438 C107.367187,69.2617199 107.228517,69.466796 107.052734,69.6425781 C106.876952,69.8183603 106.669923,69.9570307 106.431641,70.0585938 C106.193358,70.1601568 105.941408,70.2109375 105.675781,70.2109375 C105.402342,70.2109375 105.148439,70.1601568 104.914062,70.0585938 C104.679686,69.9570307 104.47461,69.8183603 104.298828,69.6425781 C104.123046,69.466796 103.984376,69.2617199 103.882812,69.0273438 C103.781249,68.7929676 103.730469,68.5429701 103.730469,68.2773438 C103.730469,68.0039049 103.781249,67.7480481 103.882812,67.5097656 C103.984376,67.2714832 104.123046,67.0625009 104.298828,66.8828125 C104.47461,66.7031241 104.679686,66.5625005 104.914062,66.4609375 C105.148439,66.3593745 105.402342,66.3085938 105.675781,66.3085938 L105.675781,66.3085938 Z M118.871094,66.3085938 C119.13672,66.3085938 119.388671,66.3593745 119.626953,66.4609375 C119.865236,66.5625005 120.072265,66.7031241 120.248047,66.8828125 C120.423829,67.0625009 120.562499,67.2714832 120.664062,67.5097656 C120.765626,67.7480481 120.816406,68.0039049 120.816406,68.2773438 C120.816406,68.5429701 120.765626,68.7929676 120.664062,69.0273438 C120.562499,69.2617199 120.423829,69.466796 120.248047,69.6425781 C120.072265,69.8183603 119.865236,69.9570307 119.626953,70.0585938 C119.388671,70.1601568 119.13672,70.2109375 118.871094,70.2109375 C118.597655,70.2109375 118.343751,70.1601568 118.109375,70.0585938 C117.874999,69.9570307 117.669923,69.8183603 117.494141,69.6425781 C117.318358,69.466796 117.179688,69.2617199 117.078125,69.0273438 C116.976562,68.7929676 116.925781,68.5429701 116.925781,68.2773438 C116.925781,68.0039049 116.976562,67.7480481 117.078125,67.5097656 C117.179688,67.2714832 117.318358,67.0625009 117.494141,66.8828125 C117.669923,66.7031241 117.874999,66.5625005 118.109375,66.4609375 C118.343751,66.3593745 118.597655,66.3085938 118.871094,66.3085938 L118.871094,66.3085938 Z M131.175781,53.4414062 L130.847656,58.9375 L128.925781,58.9375 L128.585938,53.4414062 L131.175781,53.4414062 Z M135.734375,53.4414062 L135.40625,58.9375 L133.484375,58.9375 L133.144531,53.4414062 L135.734375,53.4414062 Z" id="--&quot;.....&quot;---------&quot;." fill="#CB1E31"></path>
            <path id="Line" d="M120.5,23.5 L134.5,30.5 L120.5,37.5 L120.5,31.5 L51.5,31.5 L51.5,29.5 L120.5,29.5 L120.5,23.5 Z" fill="#EE6B47" fill-rule="nonzero"></path>
        </g>
    </g>
</svg>

<svg xmlns="http://www.w3.org/2000/svg" width="463" height="130" viewBox="0 0 463 130"><defs><style>@import url(https://fonts.googleapis.com/css?family=Open+Sans:bold,italic,bolditalic%7CPT+Mono);@font-face{font-family:&apos;PT Mono&apos;;font-weight:700;font-style:normal;src:local(&apos;PT MonoBold&apos;),url(/font/PTMonoBold.woff2) format(&apos;woff2&apos;),url(/font/PTMonoBold.woff) format(&apos;woff&apos;),url(/font/PTMonoBold.ttf) format(&apos;truetype&apos;)}</style></defs><g id="regexp" fill="none" fill-rule="evenodd" stroke="none" stroke-width="1"><g id="witch_lazy5.svg"><text id="a-&quot;witch&quot;-and-her-&quot;b" fill="#AF6E24" font-family="PTMono-Regular, PT Mono" font-size="22" font-weight="normal"><tspan x="20" y="105">a &quot;witch&quot; and her &quot;broom&quot; is one</tspan></text><path id="Rectangle-1" stroke="#DBAF88" d="M45.5 43.5h94v76h-94z"/><path id="--&quot;.....&quot;---------&quot;." fill="#A7333A" d="M52.004 53.441l-.328 5.496h-1.922l-.34-5.496h2.59zm4.559 0l-.329 5.496h-1.922l-.34-5.496h2.59zM66.09 66.31c.265 0 .517.05.756.152.238.102.445.242.62.422.177.18.315.388.417.627.101.238.152.494.152.767 0 .266-.05.516-.152.75a1.95 1.95 0 01-1.793 1.184c-.274 0-.527-.05-.762-.152a1.967 1.967 0 01-1.031-1.032 1.866 1.866 0 01-.152-.75c0-.273.05-.529.152-.767a2.02 2.02 0 01.416-.627 1.895 1.895 0 011.377-.574zm13.195 0c.266 0 .518.05.756.152s.445.242.621.422.315.388.416.627c.102.238.152.494.152.767 0 .266-.05.516-.152.75a1.95 1.95 0 01-1.793 1.184c-.273 0-.527-.05-.762-.152a1.967 1.967 0 01-1.03-1.032 1.866 1.866 0 01-.153-.75c0-.273.05-.529.152-.767a2.02 2.02 0 01.416-.627 1.895 1.895 0 011.377-.574zm13.195 0c.266 0 .518.05.756.152.239.102.446.242.621.422.176.18.315.388.416.627.102.238.153.494.153.767 0 .266-.051.516-.153.75a1.95 1.95 0 01-1.793 1.184c-.273 0-.527-.05-.761-.152a1.967 1.967 0 01-1.031-1.032 1.866 1.866 0 01-.153-.75c0-.273.05-.529.153-.767a2.02 2.02 0 01.416-.627 1.895 1.895 0 011.377-.574zm13.196 0c.265 0 .517.05.756.152.238.102.445.242.62.422.177.18.315.388.417.627.101.238.152.494.152.767 0 .266-.05.516-.152.75a1.95 1.95 0 01-1.793 1.184c-.274 0-.528-.05-.762-.152a1.967 1.967 0 01-1.031-1.032 1.866 1.866 0 01-.153-.75c0-.273.051-.529.153-.767a2.02 2.02 0 01.416-.627 1.895 1.895 0 011.377-.574zm13.195 0c.266 0 .518.05.756.152s.445.242.621.422.314.388.416.627c.102.238.152.494.152.767 0 .266-.05.516-.152.75a1.95 1.95 0 01-1.793 1.184c-.273 0-.527-.05-.762-.152a1.967 1.967 0 01-1.03-1.032 1.866 1.866 0 01-.153-.75c0-.273.05-.529.152-.767a2.02 2.02 0 01.416-.627 1.895 1.895 0 011.377-.574zm12.305-12.868l-.328 5.496h-1.922l-.34-5.496h2.59zm4.558 0l-.328 5.496h-1.922l-.34-5.496h2.59z"/><path id="Line" fill="#C06334" fill-rule="nonzero" d="M120.5 23.5l14 7-14 7v-6h-69v-2h69v-6z"/></g></g></svg>
